src/pos-icons/atlassian.svg

<svg height="24" viewBox="0 0 24 24" width="24" xmlns="http://www.w3.org/2000/svg"><path d="m7.93 11.24c-.19-.24-.55-.3-.8-.11-.07.06-.13.13-.17.21l-4.9 9.81c-.15.29-.03.64.26.79.08.06.18.06.27.06h6.82c.22 0 .43-.12.53-.32 1.47-3.05.56-7.68-2.01-10.44m3.6-8.93c-2.48 3.83-2.77 8.69-.76 12.78l3.29 6.59c.11.2.31.32.53.32h6.82a.59.59 0 0 0 .59-.59c0-.09 0-.18-.06-.26 0 0-9.18-18.38-9.44-18.84-.11-.27-.44-.39-.72-.25-.11.05-.2.14-.25.25z"/></svg>

<?xml version="1.0" encoding="UTF-8"?><!DOCTYPE svg PUBLIC "-//W3C//DTD SVG 1.1//EN" "http://www.w3.org/Graphics/SVG/1.1/DTD/svg11.dtd"><svg xmlns="http://www.w3.org/2000/svg" xmlns:xlink="http://www.w3.org/1999/xlink" version="1.1" id="mdi-atlassian" width="24" height="24" viewBox="0 0 24 24"><path d="M7.93,11.24C7.74,11 7.38,10.94 7.13,11.13C7.06,11.19 7,11.26 6.96,11.34L2.06,21.15C1.91,21.44 2.03,21.79 2.32,21.94C2.4,22 2.5,22 2.59,22H9.41C9.63,22 9.84,21.88 9.94,21.68C11.41,18.63 10.5,14 7.93,11.24M11.53,2.31C9.05,6.14 8.76,11 10.77,15.09L14.06,21.68C14.17,21.88 14.37,22 14.59,22H21.41A0.59,0.59 0 0,0 22,21.41C22,21.32 22,21.23 21.94,21.15C21.94,21.15 12.76,2.77 12.5,2.31C12.39,2.04 12.06,1.92 11.78,2.06C11.67,2.11 11.58,2.2 11.53,2.31Z" /></svg>
